server/website/public/icons/base/plant.svg

<svg width="48" height="48" viewBox="0 0 48 48" fill="none" xmlns="http://www.w3.org/2000/svg">
<path d="M47 2.40001V7.20001C47 11.6556 45.2145 15.9288 42.0362 19.0794C38.858 22.23 34.5474 24 30.0526 24H27.6316V26.4H39.7368V43.2C39.7368 44.473 39.2267 45.6939 38.3186 46.5941C37.4106 47.4943 36.1789 48 34.8947 48H15.5263C14.2421 48 13.0105 47.4943 12.1024 46.5941C11.1944 45.6939 10.6842 44.473 10.6842 43.2V26.4H22.7895V19.2C22.7895 14.7444 24.575 10.4712 27.7532 7.32061C30.9315 4.17 35.2421 2.40001 39.7368 2.40001H47ZM9.47368 5.90221e-06C12.3789 -0.00232764 15.2421 0.687327 17.8223 2.0109C20.4026 3.33448 22.6242 5.25323 24.3002 7.60561C21.7432 10.9388 20.3617 15.0125 20.3684 19.2V21.6H19.1579C14.3421 21.6 9.72359 19.7036 6.31832 16.3279C2.91306 12.9523 1 8.3739 1 3.60001V5.90221e-06H9.47368Z" fill="black"/>
</svg>

<svg width="48" height="48" fill="none" xmlns="http://www.w3.org/2000/svg"><path d="M47 2.4v4.8c0 4.456-1.785 8.729-4.964 11.88A17.023 17.023 0 0130.053 24h-2.421v2.4h12.105v16.8c0 1.273-.51 2.494-1.418 3.394A4.864 4.864 0 0134.895 48H15.526a4.864 4.864 0 01-3.424-1.406 4.78 4.78 0 01-1.418-3.394V26.4H22.79v-7.2c0-4.456 1.785-8.729 4.963-11.88A17.023 17.023 0 0139.737 2.4H47zM9.474 0a18.262 18.262 0 018.348 2.01A18.087 18.087 0 0124.3 7.607 18.996 18.996 0 0020.368 19.2v2.4h-1.21a18.239 18.239 0 01-12.84-5.272A17.92 17.92 0 011 3.6V0h8.474z" fill="#000"/></svg>
